Newaita-dark/apps/22/com.github.torikulhabib.nino.svg

<svg height="22" viewBox="0 0 22 22" width="22" xmlns="http://www.w3.org/2000/svg" xmlns:xlink="http://www.w3.org/1999/xlink"><linearGradient id="a" gradientTransform="matrix(.00572972 0 0 .0429729 5.366594 9.239165)" gradientUnits="userSpaceOnUse" x1="254" x2="254" y1="233.5" y2="254.666672"><stop offset="0" stop-opacity=".27451"/><stop offset="1" stop-opacity="0"/></linearGradient><linearGradient id="b"><stop offset="0" stop-opacity=".313726"/><stop offset=".222222" stop-opacity=".27451"/><stop offset="1" stop-opacity="0"/></linearGradient><radialGradient id="c" cx="450.908936" cy="189.579361" gradientTransform="matrix(.00000012 -.0537161 -.0966889 -.00000007 25.834308 43.721791)" gradientUnits="userSpaceOnUse" r="21.166656" xlink:href="#b"/><radialGradient id="d" cx="450.908936" cy="189.579361" gradientTransform="matrix(-.00000012 .0537161 .0966889 .00000007 -12.190429 -5.175142)" gradientUnits="userSpaceOnUse" r="21.166656" xlink:href="#b"/><radialGradient id="e" cx="450.908936" cy="189.579361" gradientTransform="matrix(-.00000012 -.0537161 .0966889 -.00000007 -12.190429 43.721791)" gradientUnits="userSpaceOnUse" r="21.166656" xlink:href="#b"/><radialGradient id="f" cx="450.908936" cy="189.579361" gradientTransform="matrix(.00000012 .0537161 -.0966889 .00000007 25.834307 -5.175142)" gradientUnits="userSpaceOnUse" r="21.166656" xlink:href="#b"/><linearGradient id="g" gradientUnits="userSpaceOnUse" x1="6.821947875" x2="6.821947875" y1="19.27333515" y2="1.99106697081"><stop offset="0" stop-color="#66bb6a"/><stop offset="1" stop-color="#81c784"/></linearGradient><linearGradient id="h" gradientUnits="userSpaceOnUse" x1="15.008285325" x2="15.008285325" y1="19.27333515" y2="1.99106765838"><stop offset="0" stop-color="#f44336"/><stop offset="1" stop-color="#ef5350"/></linearGradient><radialGradient id="i" cx="450.908936" cy="189.579361" gradientTransform="matrix(.00000009 -.0537161 -.0725167 -.00000007 28.585349 43.721791)" gradientUnits="userSpaceOnUse" r="21.166656" xlink:href="#b"/><radialGradient id="j" cx="450.908936" cy="189.579361" gradientTransform="matrix(-.00000009 .0537161 .0725167 .00000007 1.43119 -5.175142)" gradientUnits="userSpaceOnUse" r="21.166656" xlink:href="#b"/><radialGradient id="k" cx="450.908936" cy="189.579361" gradientTransform="matrix(-.00000009 -.0537161 .0725167 -.00000007 1.43119 43.721791)" gradientUnits="userSpaceOnUse" r="21.166656" xlink:href="#b"/><radialGradient id="l" cx="450.908936" cy="189.579361" gradientTransform="matrix(.00000009 .0537161 -.0725167 .00000007 28.585348 -5.175142)" gradientUnits="userSpaceOnUse" r="21.166656" xlink:href="#b"/><path d="m5.914062 19.207031h1.816407v1.007813h-1.816407zm0 0" fill="url(#a)"/><path d="m7.730469 19.273438h1.820312v-.910157h-1.820312zm0 0" fill="url(#c)"/><path d="m5.914062 19.273438h-1.820312v.910156h1.820312zm0 0" fill="url(#d)"/><path d="m5.914062 19.273438h-1.820312v-.910157h1.820312zm0 0" fill="url(#e)"/><path d="m7.730469 19.273438h1.820312v.910156h-1.820312zm0 0" fill="url(#f)"/><path d="m6.789062 1.996094c-.285156.011718-.546874.152344-.710937.390625l-4.09375 5.910156c-.414063.601563.015625 1.421875.746094 1.421875h1.820312v8.644531c0 .5.40625.90625.90625.90625h2.730469c.5 0 .902344-.40625.902344-.90625v-8.644531h1.824218c.730469 0 1.160157-.820312.746094-1.421875l-4.09375-5.910156c-.175781-.253907-.46875-.402344-.777344-.390625zm0 0" fill="url(#g)"/><path d="m14.980469 19.269531c-.285157-.011719-.550781-.15625-.710938-.390625l-4.09375-5.914062c-.417969-.597656.011719-1.417969.742188-1.417969h1.824219v-8.644531c0-.5.40625-.90625.90625-.90625h2.730468c.496094 0 .902344.40625.902344.90625v8.644531h1.824219c.730469 0 1.160156.820313.746093 1.417969l-4.09375 5.914062c-.175781.253906-.46875.398438-.777343.390625zm0 0" fill="url(#h)"/><path d="m6.820312 1.996094c-.011718 0-.019531 0-.03125 0-.285156.011718-.546874.152344-.710937.390625l-4.09375 5.910156c-.148437.214844-.1875.457031-.144531.683594.019531-.121094.070312-.238281.144531-.347657l4.09375-5.910156c.164063-.234375.425781-.378906.710937-.390625.308594-.011719.601563.136719.777344.390625l4.09375 5.910156c.074219.109376.121094.226563.144532.347657.042968-.226563.003906-.46875-.144532-.683594l-4.09375-5.910156c-.171875-.246094-.449218-.390625-.746094-.390625zm0 0" fill="#fff" fill-opacity=".392157"/><path d="m13.648438 1.996094c-.5 0-.90625.40625-.90625.90625v.335937c0-.5.40625-.90625.90625-.90625h2.730468c.496094 0 .902344.40625.902344.90625v-.335937c0-.5-.40625-.90625-.902344-.90625zm-2.730469 9.550781c-.59375 0-.992188.546875-.890625 1.074219.078125-.398438.421875-.738282.890625-.738282h1.824219v-.335937zm6.363281 0v.335937h1.824219c.46875 0 .8125.339844.890625.738282.101562-.527344-.292969-1.074219-.890625-1.074219zm0 0" fill="#fff" fill-opacity=".313726"/><path d="m1.851562 8.585938c-.144531.542968.257813 1.132812.878907 1.132812h1.820312v-.449219h-1.820312c-.449219 0-.78125-.308593-.878907-.683593zm9.941407 0c-.097657.375-.429688.683593-.878907.683593h-1.824218v.449219h1.824218c.621094 0 1.023438-.589844.878907-1.132812zm-7.242188 9.328124v.449219c0 .5.40625.90625.90625.90625h2.730469c.5 0 .902344-.40625.902344-.90625v-.449219c0 .5-.402344.90625-.902344.90625h-2.730469c-.5 0-.90625-.40625-.90625-.90625zm0 0" fill-opacity=".235294"/><path d="m10.042969 12.230469c-.0625.238281-.03125.503906.132812.734375l4.09375 5.914062c.160157.234375.425781.378906.710938.390625.308593.007813.601562-.136719.777343-.390625l4.09375-5.914062c.160157-.230469.195313-.496094.132813-.734375-.027344.097656-.070313.195312-.132813.285156l-4.09375 5.914063c-.175781.253906-.46875.398437-.777343.390624-.285157-.011718-.550781-.15625-.710938-.390624l-4.09375-5.914063c-.066406-.089844-.109375-.1875-.132812-.285156zm0 0" fill-opacity=".235294"/><path d="m157.984913-168.54989c-6.63573.272701-12.726057 3.545116-16.543874 9.090041l-95.263631 137.532321c-9.635443 13.998663.363602 33.087749 17.361979 33.087749h42.359591v201.162608c0 11.635253 9.453643 21.088895 21.088895 21.088895h63.539387c11.635253 0 20.997995-9.453642 20.997995-21.088895v-201.162608h42.450492c16.998376 0 26.997421-19.089086 17.361978-33.087749l-95.26363-137.532321c-4.090519-5.908527-10.908049-9.362743-18.089182-9.090041zm0 0" fill="none" stroke="#212121" stroke-linecap="round" stroke-linejoin="round" stroke-width="3" transform="matrix(.0429729 0 0 .0429729 0 9.239163)"/><path d="m348.603074 233.411724c-6.63573-.272701-12.816958-3.636016-16.543875-9.090041l-95.26363-137.623221c-9.726344-13.907763.272701-32.996849 17.271078-32.996849h42.450492v-201.162608c0-11.635253 9.453642-21.088895 21.088895-21.088895h63.539387c11.544352 0 20.997994 9.453642 20.997994 21.088895v201.162608h42.450492c16.998377 0 26.997422 19.089086 17.361978 32.996849l-95.26363 137.623221c-4.090518 5.908527-10.908049 9.271842-18.089181 9.090041zm0 0" fill="none" stroke="#212121" stroke-linecap="round" stroke-linejoin="round" stroke-width="3" transform="matrix(.0429729 0 0 .0429729 0 9.239163)"/><path d="m15.007812 19.273438h1.363282v-.910157h-1.363282zm0 0" fill="url(#i)"/><path d="m15.007812 19.273438h-1.363281v.910156h1.363281zm0 0" fill="url(#j)"/><path d="m15.007812 19.273438h-1.363281v-.910157h1.363281zm0 0" fill="url(#k)"/><path d="m15.007812 19.273438h1.363282v.910156h-1.363282zm0 0" fill="url(#l)"/></svg>

<?xml version="1.0" encoding="UTF-8"?>
<svg xmlns="http://www.w3.org/2000/svg" xmlns:xlink="http://www.w3.org/1999/xlink" width="22px" height="22px" viewBox="0 0 22 22" version="1.1">
<defs>
<linearGradient id="linear0" gradientUnits="userSpaceOnUse" x1="254" y1="233.5" x2="254" y2="254.666672" gradientTransform="matrix(0.00572972,0,0,0.0429729,5.366594,9.239165)">
<stop offset="0" style="stop-color:rgb(0%,0%,0%);stop-opacity:0.27451;"/>
<stop offset="1" style="stop-color:rgb(0%,0%,0%);stop-opacity:0;"/>
</linearGradient>
<radialGradient id="radial0" gradientUnits="userSpaceOnUse" cx="450.908936" cy="189.579361" fx="450.908936" fy="189.579361" r="21.166656" gradientTransform="matrix(0.000000119742,-0.0537161,-0.0966889,-0.0000000698078,25.834308,43.721791)">
<stop offset="0" style="stop-color:rgb(0%,0%,0%);stop-opacity:0.313726;"/>
<stop offset="0.222222" style="stop-color:rgb(0%,0%,0%);stop-opacity:0.27451;"/>
<stop offset="1" style="stop-color:rgb(0%,0%,0%);stop-opacity:0;"/>
</radialGradient>
<radialGradient id="radial1" gradientUnits="userSpaceOnUse" cx="450.908936" cy="189.579361" fx="450.908936" fy="189.579361" r="21.166656" gradientTransform="matrix(-0.000000119742,0.0537161,0.0966889,0.0000000698078,-12.190429,-5.175142)">
<stop offset="0" style="stop-color:rgb(0%,0%,0%);stop-opacity:0.313726;"/>
<stop offset="0.222222" style="stop-color:rgb(0%,0%,0%);stop-opacity:0.27451;"/>
<stop offset="1" style="stop-color:rgb(0%,0%,0%);stop-opacity:0;"/>
</radialGradient>
<radialGradient id="radial2" gradientUnits="userSpaceOnUse" cx="450.908936" cy="189.579361" fx="450.908936" fy="189.579361" r="21.166656" gradientTransform="matrix(-0.000000119742,-0.0537161,0.0966889,-0.0000000698078,-12.190429,43.721791)">
<stop offset="0" style="stop-color:rgb(0%,0%,0%);stop-opacity:0.313726;"/>
<stop offset="0.222222" style="stop-color:rgb(0%,0%,0%);stop-opacity:0.27451;"/>
<stop offset="1" style="stop-color:rgb(0%,0%,0%);stop-opacity:0;"/>
</radialGradient>
<radialGradient id="radial3" gradientUnits="userSpaceOnUse" cx="450.908936" cy="189.579361" fx="450.908936" fy="189.579361" r="21.166656" gradientTransform="matrix(0.000000119742,0.0537161,-0.0966889,0.0000000698078,25.834307,-5.175142)">
<stop offset="0" style="stop-color:rgb(0%,0%,0%);stop-opacity:0.313726;"/>
<stop offset="0.222222" style="stop-color:rgb(0%,0%,0%);stop-opacity:0.27451;"/>
<stop offset="1" style="stop-color:rgb(0%,0%,0%);stop-opacity:0;"/>
</radialGradient>
<linearGradient id="linear1" gradientUnits="userSpaceOnUse" x1="158.75" y1="233.5" x2="158.75" y2="-168.666672" gradientTransform="matrix(0.0429729,0,0,0.0429729,0,9.239163)">
<stop offset="0" style="stop-color:rgb(40.000001%,73.333335%,41.568628%);stop-opacity:1;"/>
<stop offset="1" style="stop-color:rgb(50.588238%,78.039217%,51.764709%);stop-opacity:1;"/>
</linearGradient>
<linearGradient id="linear2" gradientUnits="userSpaceOnUse" x1="349.25" y1="233.5" x2="349.25" y2="-168.666656" gradientTransform="matrix(0.0429729,0,0,0.0429729,0,9.239163)">
<stop offset="0" style="stop-color:rgb(95.686275%,26.274511%,21.176471%);stop-opacity:1;"/>
<stop offset="1" style="stop-color:rgb(93.725491%,32.549021%,31.37255%);stop-opacity:1;"/>
</linearGradient>
<radialGradient id="radial4" gradientUnits="userSpaceOnUse" cx="450.908936" cy="189.579361" fx="450.908936" fy="189.579361" r="21.166656" gradientTransform="matrix(0.0000000898066,-0.0537161,-0.0725167,-0.0000000698078,28.585349,43.721791)">
<stop offset="0" style="stop-color:rgb(0%,0%,0%);stop-opacity:0.313726;"/>
<stop offset="0.222222" style="stop-color:rgb(0%,0%,0%);stop-opacity:0.27451;"/>
<stop offset="1" style="stop-color:rgb(0%,0%,0%);stop-opacity:0;"/>
</radialGradient>
<radialGradient id="radial5" gradientUnits="userSpaceOnUse" cx="450.908936" cy="189.579361" fx="450.908936" fy="189.579361" r="21.166656" gradientTransform="matrix(-0.0000000898066,0.0537161,0.0725167,0.0000000698078,1.43119,-5.175142)">
<stop offset="0" style="stop-color:rgb(0%,0%,0%);stop-opacity:0.313726;"/>
<stop offset="0.222222" style="stop-color:rgb(0%,0%,0%);stop-opacity:0.27451;"/>
<stop offset="1" style="stop-color:rgb(0%,0%,0%);stop-opacity:0;"/>
</radialGradient>
<radialGradient id="radial6" gradientUnits="userSpaceOnUse" cx="450.908936" cy="189.579361" fx="450.908936" fy="189.579361" r="21.166656" gradientTransform="matrix(-0.0000000898066,-0.0537161,0.0725167,-0.0000000698078,1.43119,43.721791)">
<stop offset="0" style="stop-color:rgb(0%,0%,0%);stop-opacity:0.313726;"/>
<stop offset="0.222222" style="stop-color:rgb(0%,0%,0%);stop-opacity:0.27451;"/>
<stop offset="1" style="stop-color:rgb(0%,0%,0%);stop-opacity:0;"/>
</radialGradient>
<radialGradient id="radial7" gradientUnits="userSpaceOnUse" cx="450.908936" cy="189.579361" fx="450.908936" fy="189.579361" r="21.166656" gradientTransform="matrix(0.0000000898066,0.0537161,-0.0725167,0.0000000698078,28.585348,-5.175142)">
<stop offset="0" style="stop-color:rgb(0%,0%,0%);stop-opacity:0.313726;"/>
<stop offset="0.222222" style="stop-color:rgb(0%,0%,0%);stop-opacity:0.27451;"/>
<stop offset="1" style="stop-color:rgb(0%,0%,0%);stop-opacity:0;"/>
</radialGradient>
</defs>
<g id="surface1">
<path style=" stroke:none;fill-rule:nonzero;fill:url(#linear0);" d="M 5.914062 19.207031 L 7.730469 19.207031 L 7.730469 20.214844 L 5.914062 20.214844 Z M 5.914062 19.207031 "/>
<path style=" stroke:none;fill-rule:nonzero;fill:url(#radial0);" d="M 7.730469 19.273438 L 9.550781 19.273438 L 9.550781 18.363281 L 7.730469 18.363281 Z M 7.730469 19.273438 "/>
<path style=" stroke:none;fill-rule:nonzero;fill:url(#radial1);" d="M 5.914062 19.273438 L 4.09375 19.273438 L 4.09375 20.183594 L 5.914062 20.183594 Z M 5.914062 19.273438 "/>
<path style=" stroke:none;fill-rule:nonzero;fill:url(#radial2);" d="M 5.914062 19.273438 L 4.09375 19.273438 L 4.09375 18.363281 L 5.914062 18.363281 Z M 5.914062 19.273438 "/>
<path style=" stroke:none;fill-rule:nonzero;fill:url(#radial3);" d="M 7.730469 19.273438 L 9.550781 19.273438 L 9.550781 20.183594 L 7.730469 20.183594 Z M 7.730469 19.273438 "/>
<path style=" stroke:none;fill-rule:nonzero;fill:url(#linear1);" d="M 6.789062 1.996094 C 6.503906 2.007812 6.242188 2.148438 6.078125 2.386719 L 1.984375 8.296875 C 1.570312 8.898438 2 9.71875 2.730469 9.71875 L 4.550781 9.71875 L 4.550781 18.363281 C 4.550781 18.863281 4.957031 19.269531 5.457031 19.269531 L 8.1875 19.269531 C 8.6875 19.269531 9.089844 18.863281 9.089844 18.363281 L 9.089844 9.71875 L 10.914062 9.71875 C 11.644531 9.71875 12.074219 8.898438 11.660156 8.296875 L 7.566406 2.386719 C 7.390625 2.132812 7.097656 1.984375 6.789062 1.996094 Z M 6.789062 1.996094 "/>
<path style=" stroke:none;fill-rule:nonzero;fill:url(#linear2);" d="M 14.980469 19.269531 C 14.695312 19.257812 14.429688 19.113281 14.269531 18.878906 L 10.175781 12.964844 C 9.757812 12.367188 10.1875 11.546875 10.917969 11.546875 L 12.742188 11.546875 L 12.742188 2.902344 C 12.742188 2.402344 13.148438 1.996094 13.648438 1.996094 L 16.378906 1.996094 C 16.875 1.996094 17.28125 2.402344 17.28125 2.902344 L 17.28125 11.546875 L 19.105469 11.546875 C 19.835938 11.546875 20.265625 12.367188 19.851562 12.964844 L 15.757812 18.878906 C 15.582031 19.132812 15.289062 19.277344 14.980469 19.269531 Z M 14.980469 19.269531 "/>
<path style=" stroke:none;fill-rule:nonzero;fill:rgb(100%,100%,100%);fill-opacity:0.392157;" d="M 6.820312 1.996094 C 6.808594 1.996094 6.800781 1.996094 6.789062 1.996094 C 6.503906 2.007812 6.242188 2.148438 6.078125 2.386719 L 1.984375 8.296875 C 1.835938 8.511719 1.796875 8.753906 1.839844 8.980469 C 1.859375 8.859375 1.910156 8.742188 1.984375 8.632812 L 6.078125 2.722656 C 6.242188 2.488281 6.503906 2.34375 6.789062 2.332031 C 7.097656 2.320312 7.390625 2.46875 7.566406 2.722656 L 11.660156 8.632812 C 11.734375 8.742188 11.78125 8.859375 11.804688 8.980469 C 11.847656 8.753906 11.808594 8.511719 11.660156 8.296875 L 7.566406 2.386719 C 7.394531 2.140625 7.117188 1.996094 6.820312 1.996094 Z M 6.820312 1.996094 "/>
<path style=" stroke:none;fill-rule:nonzero;fill:rgb(100%,100%,100%);fill-opacity:0.313726;" d="M 13.648438 1.996094 C 13.148438 1.996094 12.742188 2.402344 12.742188 2.902344 L 12.742188 3.238281 C 12.742188 2.738281 13.148438 2.332031 13.648438 2.332031 L 16.378906 2.332031 C 16.875 2.332031 17.28125 2.738281 17.28125 3.238281 L 17.28125 2.902344 C 17.28125 2.402344 16.875 1.996094 16.378906 1.996094 Z M 10.917969 11.546875 C 10.324219 11.546875 9.925781 12.09375 10.027344 12.621094 C 10.105469 12.222656 10.449219 11.882812 10.917969 11.882812 L 12.742188 11.882812 L 12.742188 11.546875 Z M 17.28125 11.546875 L 17.28125 11.882812 L 19.105469 11.882812 C 19.574219 11.882812 19.917969 12.222656 19.996094 12.621094 C 20.097656 12.09375 19.703125 11.546875 19.105469 11.546875 Z M 17.28125 11.546875 "/>
<path style=" stroke:none;fill-rule:nonzero;fill:rgb(0%,0%,0%);fill-opacity:0.235294;" d="M 1.851562 8.585938 C 1.707031 9.128906 2.109375 9.71875 2.730469 9.71875 L 4.550781 9.71875 L 4.550781 9.269531 L 2.730469 9.269531 C 2.28125 9.269531 1.949219 8.960938 1.851562 8.585938 Z M 11.792969 8.585938 C 11.695312 8.960938 11.363281 9.269531 10.914062 9.269531 L 9.089844 9.269531 L 9.089844 9.71875 L 10.914062 9.71875 C 11.535156 9.71875 11.9375 9.128906 11.792969 8.585938 Z M 4.550781 17.914062 L 4.550781 18.363281 C 4.550781 18.863281 4.957031 19.269531 5.457031 19.269531 L 8.1875 19.269531 C 8.6875 19.269531 9.089844 18.863281 9.089844 18.363281 L 9.089844 17.914062 C 9.089844 18.414062 8.6875 18.820312 8.1875 18.820312 L 5.457031 18.820312 C 4.957031 18.820312 4.550781 18.414062 4.550781 17.914062 Z M 4.550781 17.914062 "/>
<path style=" stroke:none;fill-rule:nonzero;fill:rgb(0%,0%,0%);fill-opacity:0.235294;" d="M 10.042969 12.230469 C 9.980469 12.46875 10.011719 12.734375 10.175781 12.964844 L 14.269531 18.878906 C 14.429688 19.113281 14.695312 19.257812 14.980469 19.269531 C 15.289062 19.277344 15.582031 19.132812 15.757812 18.878906 L 19.851562 12.964844 C 20.011719 12.734375 20.046875 12.46875 19.984375 12.230469 C 19.957031 12.328125 19.914062 12.425781 19.851562 12.515625 L 15.757812 18.429688 C 15.582031 18.683594 15.289062 18.828125 14.980469 18.820312 C 14.695312 18.808594 14.429688 18.664062 14.269531 18.429688 L 10.175781 12.515625 C 10.109375 12.425781 10.066406 12.328125 10.042969 12.230469 Z M 10.042969 12.230469 "/>
<path style="fill:none;stroke-width:3;stroke-linecap:round;stroke-linejoin:round;stroke:rgb(12.941177%,12.941177%,12.941177%);stroke-opacity:1;stroke-miterlimit:4;" d="M 157.984913 -168.54989 C 151.349183 -168.277189 145.258856 -165.004774 141.441039 -159.459849 L 46.177408 -21.927528 C 36.541965 -7.928865 46.54101 11.160221 63.539387 11.160221 L 105.898978 11.160221 L 105.898978 212.322829 C 105.898978 223.958082 115.352621 233.411724 126.987873 233.411724 L 190.52726 233.411724 C 202.162513 233.411724 211.525255 223.958082 211.525255 212.322829 L 211.525255 11.160221 L 253.975747 11.160221 C 270.974123 11.160221 280.973168 -7.928865 271.337725 -21.927528 L 176.074095 -159.459849 C 171.983576 -165.368376 165.166046 -168.822592 157.984913 -168.54989 Z M 157.984913 -168.54989 " transform="matrix(0.0429729,0,0,0.0429729,0,9.239163)"/>
<path style="fill:none;stroke-width:3;stroke-linecap:round;stroke-linejoin:round;stroke:rgb(12.941177%,12.941177%,12.941177%);stroke-opacity:1;stroke-miterlimit:4;" d="M 348.603074 233.411724 C 341.967344 233.139023 335.786116 229.775708 332.059199 224.321683 L 236.795569 86.698462 C 227.069225 72.790699 237.06827 53.701613 254.066647 53.701613 L 296.517139 53.701613 L 296.517139 -147.460995 C 296.517139 -159.096248 305.970781 -168.54989 317.606034 -168.54989 L 381.145421 -168.54989 C 392.689773 -168.54989 402.143415 -159.096248 402.143415 -147.460995 L 402.143415 53.701613 L 444.593907 53.701613 C 461.592284 53.701613 471.591329 72.790699 461.955885 86.698462 L 366.692255 224.321683 C 362.601737 230.23021 355.784206 233.593525 348.603074 233.411724 Z M 348.603074 233.411724 " transform="matrix(0.0429729,0,0,0.0429729,0,9.239163)"/>
<path style=" stroke:none;fill-rule:nonzero;fill:url(#radial4);" d="M 15.007812 19.273438 L 16.371094 19.273438 L 16.371094 18.363281 L 15.007812 18.363281 Z M 15.007812 19.273438 "/>
<path style=" stroke:none;fill-rule:nonzero;fill:url(#radial5);" d="M 15.007812 19.273438 L 13.644531 19.273438 L 13.644531 20.183594 L 15.007812 20.183594 Z M 15.007812 19.273438 "/>
<path style=" stroke:none;fill-rule:nonzero;fill:url(#radial6);" d="M 15.007812 19.273438 L 13.644531 19.273438 L 13.644531 18.363281 L 15.007812 18.363281 Z M 15.007812 19.273438 "/>
<path style=" stroke:none;fill-rule:nonzero;fill:url(#radial7);" d="M 15.007812 19.273438 L 16.371094 19.273438 L 16.371094 20.183594 L 15.007812 20.183594 Z M 15.007812 19.273438 "/>
</g>
</svg>
